libs/images/logo/favicon.svg

<svg xmlns="http://www.w3.org/2000/svg" xmlns:xlink="http://www.w3.org/1999/xlink" version="1.1" width="500" height="500" viewBox="0 0 500 500" xml:space="preserve">
<g transform="matrix(1.1134903913 0 0 1.1134903913 250.4807692308 250.4807692308)" id="Yxw_G6LtgDGOdwMFp_pvW"><path style="stroke: rgb(77,142,119); stroke-width: 0; stroke-dasharray: none; stroke-linecap: butt; stroke-dashoffset: 0; stroke-linejoin: miter; stroke-miterlimit: 4; fill: rgb(17,17,20); fill-rule: nonzero; opacity: 1;" transform=" translate(0, 0)" d="M -224.51923 -130.45677 C -224.51923 -182.40603000000002 -182.40603 -224.51923 -130.45677 -224.51923 L 130.45677 -224.51923 L 130.45677 -224.51923 C 182.40603000000002 -224.51923 224.51923 -182.40603 224.51923 -130.45677 L 224.51923 130.45677 L 224.51923 130.45677 C 224.51923 182.40603000000002 182.40603 224.51923 130.45677 224.51923 L -130.45677 224.51923 L -130.45677 224.51923 C -182.40603000000002 224.51923 -224.51923 182.40603 -224.51923 130.45677 z" stroke-linecap="round" /></g><g transform="matrix(1.3825848853 0 0 1.3825848853 250 250)" id="j0FLSJPPVemElL9MdlF6B"><g style=""><g transform="matrix(1 0 0 1 -78.9388888889 -35.8)" id="0wMc8-pc_KvSmsgyNo6m1"><linearGradient id="SVGID_14" gradientUnits="userSpaceOnUse" gradientTransform="matrix(1 0 0 1 0 0)" x1="9.72" y1="15.94" x2="167.91" y2="153.44"><stop offset="0%" style="stop-color:rgb(27,115,205);stop-opacity: 1"/><stop offset="23%" style="stop-color:rgb(26,112,201);stop-opacity: 1"/><stop offset="46%" style="stop-color:rgb(22,105,189);stop-opacity: 1"/><stop offset="69%" style="stop-color:rgb(17,92,169);stop-opacity: 1"/><stop offset="92%" style="stop-color:rgb(8,75,142);stop-opacity: 1"/><stop offset="100%" style="stop-color:rgb(5,67,130);stop-opacity: 1"/></linearGradient><path style="stroke: none; stroke-width: 1; stroke-dasharray: none; stroke-linecap: butt; stroke-dashoffset: 0; stroke-linejoin: miter; stroke-miterlimit: 4; fill: url(#SVGID_14); fill-rule: evenodd; opacity: 1;" transform=" translate(-81.7761111111, -91.8)" d="M 8.48 4.56 L 135.85 74.16 C 135.85 74.16 155 84 155.05 102.43 C 155.10000000000002 120.86000000000001 155.05 152.97 155.05 152.97 C 155.05 152.97 155.69 165.72 146.85000000000002 172.12 C 138.01000000000005 178.52 137.14000000000001 178.85 136.79000000000002 179.04 C 136.79000000000002 179.04 145.02 173.9 144.79000000000002 163.76 C 144.56000000000003 153.61999999999998 126.92000000000002 144.42 115.79000000000002 137.82 C 115.79000000000002 137.82 85.86000000000001 121.44999999999999 83.32000000000002 119.52 C 77 115.51 16 76.31 8.48 4.56 Z" stroke-linecap="round" /></g><g transform="matrix(1 0 0 1 -78.9388888889 -59.855)" id="LXM6WUByC05PtWIHCnVve"><linearGradient id="SVGID_15" gradientUnits="userSpaceOnUse" gradientTransform="matrix(1 0 0 1 0 0)" x1="-6.96" y1="-43.95" x2="234.92" y2="244.32"><stop offset="0%" style="stop-color:rgb(51,140,228);stop-opacity: 1"/><stop offset="27%" style="stop-color:rgb(50,138,225);stop-opacity: 1"/><stop offset="48%" style="stop-color:rgb(46,131,215);stop-opacity: 1"/><stop offset="68%" style="stop-color:rgb(39,119,198);stop-opacity: 1"/><stop offset="86%" style="stop-color:rgb(29,102,174);stop-opacity: 1"/><stop offset="100%" style="stop-color:rgb(20,86,151);stop-opacity: 1"/></linearGradient><path style="stroke: none; stroke-width: 1; stroke-dasharray: none; stroke-linecap: butt; stroke-dashoffset: 0; stroke-linejoin: miter; stroke-miterlimit: 4; fill: url(#SVGID_15); fill-rule: evenodd; opacity: 1;" transform=" translate(-81.7761111111, -67.745)" d="M 8.48 4.56 L 135.85 74.16 C 135.85 74.16 155 84 155.05 102.43 C 155.10000000000002 120.86000000000001 155.05 130.93 155.05 130.93 C 155.05 130.93 153.84 116.65 125.46000000000001 99.53 C 118.29 95.21000000000001 71.33000000000001 69.81 69.64000000000001 68.87 C 64.23000000000002 65.87 32.640000000000015 49.74000000000001 17.640000000000015 41.970000000000006 C 16.16 37.41 9.87 21.31 8.48 4.56 Z" stroke-linecap="round" /></g><g transform="matrix(1 0 0 1 -48.36 45.2057439033)" id="1SHISgO8RqbPioQn5Zr4r"><linearGradient id="SVGID_16" gradientUnits="userSpaceOnUse" gradientTransform="matrix(1 0 0 1 0 0)" x1="135.7" y1="148.73" x2="80.37" y2="198.55"><stop offset="0%" style="stop-color:rgb(17,62,130);stop-opacity: 1"/><stop offset="100%" style="stop-color:rgb(40,158,220);stop-opacity: 1"/></linearGradient><path style="stroke: none; stroke-width: 1; stroke-dasharray: none; stroke-linecap: butt; stroke-dashoffset: 0; stroke-linejoin: miter; stroke-miterlimit: 4; fill: url(#SVGID_16); fill-rule: evenodd; opacity: 1;" transform=" translate(-112.355, -172.8057439033)" d="M 131.21 147.15 C 143.97 155.70000000000002 144.87 160.5 144.89000000000001 164.70000000000002 C 144.89000000000001 169.70000000000002 141.64000000000001 175.88000000000002 136.79000000000002 179.04000000000002 C 131.94000000000003 182.20000000000002 90.68000000000002 207.04000000000002 90.68000000000002 207.04000000000002 C 90.68000000000002 207.04000000000002 79.82 212.3 79.82 196.2 C 79.82 180.09999999999997 93.44 148.35 115.56 137.75 C 119.91 140.21 128.34 145.23 131.21 147.15 Z" stroke-linecap="round" /></g><g transform="matrix(1 0 0 1 78.9572222222 35.78)" id="ZKM51R1o1klYvEPBsyTvj"><linearGradient id="SVGID_17" gradientUnits="userSpaceOnUse" gradientTransform="matrix(1 0 0 1 0 0)" x1="318.42" y1="249.36" x2="162.28" y2="108.77"><stop offset="0%" style="stop-color:rgb(255,216,12);stop-opacity: 1"/><stop offset="100%" style="stop-color:rgb(255,159,25);stop-opacity: 1"/></linearGradient><path style="stroke: none; stroke-width: 1; stroke-dasharray: none; stroke-linecap: butt; stroke-dashoffset: 0; stroke-linejoin: miter; stroke-miterlimit: 4; fill: url(#SVGID_17); fill-rule: evenodd; opacity: 1;" transform=" translate(-239.6722222222, -163.38)" d="M 313 250.64 L 185.58 181 C 185.58 181 166.46 171.17 166.38000000000002 152.73 C 166.30000000000004 134.29 166.38000000000002 102.17999999999999 166.38000000000002 102.17999999999999 C 166.38000000000002 102.17999999999999 165.74000000000004 89.44 174.58 83.03999999999999 C 183.42 76.63999999999999 184.29000000000002 76.30999999999999 184.65 76.11999999999999 C 184.65 76.11999999999999 176.41 81.24999999999999 176.65 91.39999999999999 C 176.89000000000001 101.55 194.53 110.72999999999999 205.65 117.32999999999998 C 205.65 117.32999999999998 235.58 133.70999999999998 238.12 135.64 C 244.39 139.69 305.42 178.89 313 250.64 Z" stroke-linecap="round" /></g><g transform="matrix(1 0 0 1 78.9572222222 59.835)" id="pLVkqJay1Z1_6bG5PkmCA"><linearGradient id="SVGID_18" gradientUnits="userSpaceOnUse" gradientTransform="matrix(1 0 0 1 0 0)" x1="383.37" y1="370.91" x2="147.25" y2="79.32"><stop offset="0%" style="stop-color:rgb(255,255,41);stop-opacity: 1"/><stop offset="54%" style="stop-color:rgb(255,253,40);stop-opacity: 1"/><stop offset="74%" style="stop-color:rgb(255,246,39);stop-opacity: 1"/><stop offset="88%" style="stop-color:rgb(255,235,35);stop-opacity: 1"/><stop offset="99%" style="stop-color:rgb(255,218,31);stop-opacity: 1"/><stop offset="100%" style="stop-color:rgb(255,216,30);stop-opacity: 1"/></linearGradient><path style="stroke: none; stroke-width: 1; stroke-dasharray: none; stroke-linecap: butt; stroke-dashoffset: 0; stroke-linejoin: miter; stroke-miterlimit: 4; fill: url(#SVGID_18); fill-rule: evenodd; opacity: 1;" transform=" translate(-239.6722222222, -187.435)" d="M 313 250.64 L 185.58 181 C 185.58 181 166.46 171.16 166.38000000000002 152.73 C 166.30000000000004 134.29999999999998 166.38000000000002 124.22999999999999 166.38000000000002 124.22999999999999 C 166.38000000000002 124.22999999999999 167.58 138.5 195.96000000000004 155.63 C 203.13000000000002 159.95 250.10000000000002 185.35 251.79000000000002 186.29 C 257.19 189.29 288.79 205.42 303.79 213.19 C 305.28 217.78 311.57 233.89 313 250.64 Z" stroke-linecap="round" /></g><g transform="matrix(1 0 0 1 48.36 -45.2057439033)" id="-ujRa5ua-JyG5W4DR88sy"><linearGradient id="SVGID_19" gradientUnits="userSpaceOnUse" gradientTransform="matrix(1 0 0 1 0 0)" x1="188.28" y1="103.81" x2="244.48" y2="54.96"><stop offset="0%" style="stop-color:rgb(238,136,39);stop-opacity: 1"/><stop offset="11%" style="stop-color:rgb(255,149,41);stop-opacity: 1"/><stop offset="16%" style="stop-color:rgb(255,155,42);stop-opacity: 1"/><stop offset="73%" style="stop-color:rgb(255,222,54);stop-opacity: 1"/><stop offset="100%" style="stop-color:rgb(255,248,58);stop-opacity: 1"/></linearGradient><path style="stroke: none; stroke-width: 1; stroke-dasharray: none; stroke-linecap: butt; stroke-dashoffset: 0; stroke-linejoin: miter; stroke-miterlimit: 4; fill: url(#SVGID_19); fill-rule: evenodd; opacity: 1;" transform=" translate(-209.075, -82.3942560967)" d="M 190.22 108.05 C 177.46 99.49 176.56 94.7 176.54 90.49 C 176.54 85.49 179.79 79.32 184.64999999999998 76.16 C 189.50999999999996 73 230.74999999999997 48.16 230.74999999999997 48.16 C 230.74999999999997 48.16 241.61 42.9 241.61 59 C 241.61 75.1 228 106.85 205.87 117.45 C 201.52 115 193.09 110 190.22 108.05 Z" stroke-linecap="round" /></g></g></g></svg>

<svg xmlns="http://www.w3.org/2000/svg" xmlns:xlink="http://www.w3.org/1999/xlink" viewBox="0 0 304.47 246.08"><defs><style>.a,.b,.c,.d,.e,.f{fill-rule:evenodd;}.a{fill:url(#a);}.b{fill:url(#b);}.c{fill:url(#c);}.d{fill:url(#d);}.e{fill:url(#e);}.f{fill:url(#f);}</style><linearGradient id="a" x1="9.72" y1="15.94" x2="167.91" y2="153.44" gradientUnits="userSpaceOnUse"><stop offset="0" stop-color="#1b73cd"/><stop offset="0.23" stop-color="#1a70c9"/><stop offset="0.46" stop-color="#1669bd"/><stop offset="0.69" stop-color="#115ca9"/><stop offset="0.92" stop-color="#084b8e"/><stop offset="1" stop-color="#054382"/></linearGradient><linearGradient id="b" x1="-6.96" y1="-43.95" x2="234.92" y2="244.32" gradientUnits="userSpaceOnUse"><stop offset="0" stop-color="#338ce4"/><stop offset="0.27" stop-color="#328ae1"/><stop offset="0.48" stop-color="#2e83d7"/><stop offset="0.68" stop-color="#2777c6"/><stop offset="0.86" stop-color="#1d66ae"/><stop offset="1" stop-color="#145697"/></linearGradient><linearGradient id="c" x1="135.7" y1="148.73" x2="80.37" y2="198.55" gradientUnits="userSpaceOnUse"><stop offset="0" stop-color="#113e82"/><stop offset="1" stop-color="#289edc"/></linearGradient><linearGradient id="d" x1="318.42" y1="249.36" x2="162.28" y2="108.77" gradientUnits="userSpaceOnUse"><stop offset="0" stop-color="#ffd80c"/><stop offset="1" stop-color="#ff9f19"/></linearGradient><linearGradient id="e" x1="383.37" y1="370.91" x2="147.25" y2="79.32" gradientUnits="userSpaceOnUse"><stop offset="0" stop-color="#ffff29"/><stop offset="0.54" stop-color="#fffd28"/><stop offset="0.74" stop-color="#fff627"/><stop offset="0.88" stop-color="#ffeb23"/><stop offset="0.99" stop-color="#ffda1f"/><stop offset="1" stop-color="#ffd81e"/></linearGradient><linearGradient id="f" x1="188.28" y1="103.81" x2="244.48" y2="54.96" gradientUnits="userSpaceOnUse"><stop offset="0" stop-color="#ee8827"/><stop offset="0.11" stop-color="#ff9529"/><stop offset="0.16" stop-color="#ff9b2a"/><stop offset="0.73" stop-color="#ffde36"/><stop offset="1" stop-color="#fff83a"/></linearGradient></defs><title>Logotip CORGRAS</title><path class="a" d="M8.48,4.56l127.37,69.6S155,84,155.05,102.43s0,50.54,0,50.54.64,12.75-8.2,19.15-9.71,6.73-10.06,6.92c0,0,8.23-5.14,8-15.28s-17.87-19.34-29-25.94c0,0-29.93-16.37-32.47-18.3C77,115.51,16,76.31,8.48,4.56Z" transform="translate(-8.48 -4.56)"/><path class="b" d="M8.48,4.56l127.37,69.6S155,84,155.05,102.43s0,28.5,0,28.5-1.21-14.28-29.59-31.4c-7.17-4.32-54.13-29.72-55.82-30.66-5.41-3-37-19.13-52-26.9C16.16,37.41,9.87,21.31,8.48,4.56Z" transform="translate(-8.48 -4.56)"/><path class="c" d="M131.21,147.15c12.76,8.55,13.66,13.35,13.68,17.55,0,5-3.25,11.18-8.1,14.34s-46.11,28-46.11,28S79.82,212.3,79.82,196.2s13.62-47.85,35.74-58.45C119.91,140.21,128.34,145.23,131.21,147.15Z" transform="translate(-8.48 -4.56)"/><path class="d" d="M313,250.64,185.58,181s-19.12-9.83-19.2-28.27,0-50.55,0-50.55-.64-12.74,8.2-19.14,9.71-6.73,10.07-6.92c0,0-8.24,5.13-8,15.28s17.88,19.33,29,25.93c0,0,29.93,16.38,32.47,18.31C244.39,139.69,305.42,178.89,313,250.64Z" transform="translate(-8.48 -4.56)"/><path class="e" d="M313,250.64,185.58,181s-19.12-9.84-19.2-28.27,0-28.5,0-28.5,1.2,14.27,29.58,31.4c7.17,4.32,54.14,29.72,55.83,30.66,5.4,3,37,19.13,52,26.9C305.28,217.78,311.57,233.89,313,250.64Z" transform="translate(-8.48 -4.56)"/><path class="f" d="M190.22,108.05c-12.76-8.56-13.66-13.35-13.68-17.56,0-5,3.25-11.17,8.11-14.33s46.1-28,46.1-28S241.61,42.9,241.61,59,228,106.85,205.87,117.45C201.52,115,193.09,110,190.22,108.05Z" transform="translate(-8.48 -4.56)"/></svg>
